X:1
T:Ben posso dir ch'io son' equale a Giove
T:Tiburtio Massaino
T:Ben posso dir ch'io son' equale a Giove
C:Tiburtio Massaino
%%score [ 1 2 3 4 ]
L:1/8
Q:1/4=96
M:4/2
K:F
V:1 alto1 nm="Soprano" snm="S"
V:2 alto nm="Alto" snm="A"
V:3 tenor nm="Tenor" snm="T"
V:4 bass nm="Bass" snm="B"
V:1
 z16 |[K:G][K:treble] z16 | z16 | z8 z4 e4 | d2 c3 c B2 e4 d2 c2 | c2 B2 A2 e4 d4 c2 | %6
w: |||Se|pa- ro- le co- ta- li, Si|pon- no dir, Si pon- no|
 B8 z4 z2 e2- | e2 d4 c2 B2 d4 c2 | B2 A4 G2 c4 B4 | z4 z2 d4 B4 A2 | B4 B4 G3 A B4 | %11
w: dir tra|_ gl'huo- mi- ni, tra gl'huo-|mi- ni mor- ta- li,|Poi che con|tal dol- cez- * *|
 G2 G4 G4 G2 E3 F | G8 G8 | z2 D2 G4 A4 B2 G2 | G4 F2 EF G2 E2 A4 | B2 B2 c3 B A2 G2 A4 | %16
w: za, Fur giunt' ai la- bri|mie- i,|I la- bri di co-|lei che'l mond' _ _ ho- no-|ra, I la- bri di co- lei|
 G2 A4 G2 c4 B4 | z4 z2 d4 B4 A2 | B4 B4 G3 A B4 | G2 G4 G4 G2 E3 F | G8 G8 | z2 D2 G4 A4 B2 G2 | %22
w: che'l mond' ho- no- ra,|Poi che con|tal dol- cez- * *|za, Fur giunt' ai la- bri|mie- i,|I la- bri di co-|
 G4 F2 EF G2 E2 A4 | B2 B2 c3 B A2 G2 A4 | G2 A4 G2 c4 B4 | z16 | z16 | B6 B2 c4 e2 d2 | %28
w: lei che'l mond' _ _ ho- no-|ra, I la- bri di co- lei|che'l mond' ho- no- ra,|||Per so- ver- chi al- le-|
 c4 B4 c6 A2 | G2 A4 B2 c4 B4 | z8 z2 e2 ^c4 | d4 e4 A2 c4 A2- | A2 B2 c4 B4 B4 | z4 e4 d2 d2 c4 | %34
w: grez- za l'al- ma|che den- tro ha- ve- i,|Sen venn'|in- fin' a quei per|_ u- scir fo- ra,|E s'io fa- ce-|
 B2 B2 c3 d e2 B2 c4 | B8 z4 e4 | d2 d2 c4 B2 B2 c3 d | e2 B2 c4 B4 z4 | z2 c3 c c2 d2 e2 =f4 | %39
w: va in tal pia- cer di- mo-|ra, E|s'io fa- ce- va in tal pia-|cer di- mo- ra,|Ne fa- rei git' in el-|
 e2 e3 e e2 dB c3 B/A/ B2 | c8 z4 A4 | c3 BAG A4 G2 =F4 | E8 z8 | z4 c4 B4 e4 | d2 e2 c8 B4 | %45
w: la, Ne fa- rei git' in el- * * *|la, ond'|io _ _ _ _ sa- re-|i,|Mor- to den-|tro al mio cor- po|
 z2 G4 F3 E E3 ^D D2 | E16 |] %47
w: et viv' in le- * *|i.|
V:2
 z16 |[K:G][K:treble] G8 G4 F4 | E6 D2 E2 F2 G4- | G2 A2 B6 AG A4 | B2 G4 F2 E4 F2 A2 | %5
w: |Ben pos- so|dir ch'io son' e- qua-|* le a Gio- * * *|ve, Se pa- ro- le co-|
 EFGE FG A3 ^G/F/ G2 A4 | z4 G4 F4 E4 | B2 B4 A4 G2 F4 | G2 E2 =F2 E3 A, A4 ^G2 | %9
w: ta- * * * * * * * * * li,|Si pon- no|dir, Si pon- no dir|tra gl'huo- mi- ni mor- ta- *|
 A4 z2 F4 G3 F E2 | D2 E4 D2 C4 B,2 B,2 | B,4 C2 D4 E2 CDEC | D4 E4 z2 E2 D2 E2 | =F4 E2 G4 F2 E4 | %14
w: li, Poi che _ _|con _ dol- cez- za, Fur|giunt' _ la- bri mie- * * *|* i, * * *||
 D4 z2 E4 G4 F2 | G3 F E2 C2 E2 E2 D4 | E2 E4 E3 A, A4 G2 | A4 z4 D4 E4 | F2 G4 F2 E4 ^D4 | %19
w: * I la- bri|di co- lei che'l mond' ho- no-|ra, _ _ _ _ _|_||
 z2 E4 B,4 B,2 C2 A,2 | B,CDB, C4 B,4 z2 G,2 | A,3 B, C2 E2 D4 B,2 C2- | C2 B,2 A,4 G,4 z2 D2- | %23
w: ||||
 D2 E4 A,2 C2 B,2 A,4 | B,2 C4 B,2 A,4 E2 B,2 | C4 B,4 z4 ^D4- | D2 ^D2 E2 G4 F2 E4 | %27
w: ||* * Per|_ so- ver- * le- grez-|
 D2 G3 G F2 G3 FEF G2- | GF F2 G4 z4 E4- | E2 E2 =F4 E2 A2 ^G4 | A4 E4 E6 F2- | F2 G4 E2 =F4 E4 | %32
w: za, _ _ _ _ _ _ _ _|_ _ _ za l'al-|* ma che den- tro ha- ve-|i, Sen venn' in-|* fin' a quei per|
 D4 E2 A4 ^GF G4 | A8 z8 | z8 B4 A2 A2 | G8 F2 D2 E3 F | G2 F2 G3 A B2 F2 A4 | %37
w: u- * fo- * * *|ra,|E s'io fa-|ce- va in tal pia-|cer, _ _ _ cer di- mo-|
 B2 G4 G2 D2 G3 F F2 | G4 z2 G3 G G2 A2 D2 | G8 G8 | z2 G,2 C2 C2 B,4 A,2 D2 | E2 C2 E4 D4 z4 | %42
w: ra, _ fa- rei git' in el-|la, * * * * *||ond' io sa- re- i, _|_ _ _ _|
 z4 E4 D4 G4 | F2 G2 G8 G4 | z4 A4 A2 A2 G3 F | EDCD E2 D2 D2 B,4 B,2- | %46
w: Mor- to den-|tro al mio cor- po|et viv' in le- *|* * * * * i, et viv' in|
 B,2 A,B, C4 !fermata!B,8 |] %47
w: _ le- * * i.|
V:3
 z16 |[K:G][K:treble-8] z4 e4 e4 B4 | c6 B2 c2 d2 e4- | e4 d4 c8 | B2 e4 d2 c3 c B2 A2- | %5
w: |Ben pos- so|dir ch'io son' e- qua-|* le a Gio-|ve, Se pa- ro- le co- ta-|
 A2 G2 z2 c2 B4 A4 | e4 z2 e4 d4 c2 | B4 z4 z8 | z2 A4 c4 d2 e2 B2 | c4 B4 d4 e4 | %10
w: * li, Si pon- no|dir, Si pon- no|dir|tra gl'huo- mi- ni mor-|ta- li, Poi che|
 f2 g4 f2 e4 ^d4 | z2 e4 B4 B2 c2 A2 | BcdB c4 B4 z2 G2 | A3 B c2 e2 d4 B2 c2- | %14
w: con tal dol- cez- za,|Fur giunt' ai la- bri|mie- * * * * i, I|la- bri di co- lei che'l mond'|
 c2 B2 A4 G4 z2 d2- | d2 e4 A2 c2 B2 A4 | B2 c4 B2 A4 e2 B2 | c4 B4 f2 g3 f e2 | %18
w: _ ho- no- ra, I|_ la- bri di co- lei|che'l mond' ho- no- ra, ho-|no- ra, Poi che _ _|
 d2 e4 d2 c4 B2 B2 | B4 c2 d4 e2 cdec | d4 e4 z2 e2 d2 e2 | =f4 e2 g4 ^f2 e4 | d4 z2 e4 g4 f2 | %23
w: con tal dol- cez- za, Fur|giunt' ai la- bri mie- * * *|* i, Fur giunt' ai|la- bri mie- * *|i, I la- bri|
 g3 f e2 c2 e2 e2 d4 | e4 z2 e2 e4 g2 f2- | fe e4 ^d2 !fermata!e4 B4- | B2 B2 c4 e2 d2 c4 | %27
w: di co- lei che'l mond' ho- no-|ra, che'l mond' ho- no-|* * * * ra, Per|_ so- ver- chi al- le- grez-|
 B2 e4 d2 c2 c4 B2 | A4 G4 z4 c4- | c2 A2 d4 c2 A2 e4 | A4 c8 A4 | B4 c4 d2 A4 c2- | c2 B2 A4 e8 | %33
w: za, Per so- ver- chi al- le-|grez- za l'al-|* ma che den- tro ha- ve-|i, Sen venn'|in- fin' a quei per|_ u- scir fo-|
 A8 z4 e4 | d2 d2 c4 B2 G2 ABcd | e8 A8 | z4 e4 d2 d2 c4 | B2 B2 G3 A B2 B2 c4 | %38
w: ra, E|s'io fa- ce- va in tal pia- cer di-|mo- ra,|E s'io fa- ce-|va in tal pia- cer di- mo-|
 B2 e3 e e2 dB c3 B B2 | c2 B3 B B2 B2 e2 d4 | e4 E4 G2 G2 F4 | E8 z8 | z16 | z4 e4 d4 c4 | %44
w: ra, Ne fa- rei git' in el- * *|la, Ne fa- rei git' in el-|la, ond' io sa- re-|i,||Mor- to den-|
 B2 A2 e4 e4 z2 B2 | cded cB A2 B2 G2 FE F2 | E2 E2 A4 ^G8 |] %47
w: tro al mio cor- po et|viv' _ _ _ _ _ _ in le- * * *|i, in le- i.|
V:4
 z16 |[K:G] z16 | z16 | z16 | z16 | z16 | z16 | z16 | z8 z4 E,4 | A,4 E,2 B,4 G,2 C4 | %10
w: ||||||||Poi|che con tal dol- cez-|
 B,8 z4 B,,4 | E,4 C,2 G,4 E,2 A,4 | G,4 C,4 E,3 F, G,2 E,2 | D,4 C,4 z4 E,4 | %14
w: za, Poi|che con tal dol- cez-|za, Fur giunt' ai la- bri|mie- i, I|
 G,4 D,2 C,4 E,2 D,4 | G,4 A,6 E,2 =F,4 | E,8 z4 E,4 | A,4 E,2 B,4 G,2 C4 | B,8 z4 B,,4 | %19
w: la- bri di co- lei|che'l mond' ho- no-|ra, Poi|che con tal dol- cez-|za, Poi|
 E,4 C,2 G,4 E,2 A,4 | G,4 C,4 E,3 F, G,2 E,2 | D,4 C,4 z4 E,4 | G,4 D,2 C,4 E,2 D,4 | %23
w: che con tal dol- cez-|za, Fur giunt' ai la- bri|mie- i, I|la- bri di co- lei|
 G,4 A,6 E,2 =F,4 | E,8 z8 | z16 | z16 | z16 | z16 | z16 | z16 | z16 | z8 z4 E,4 | %33
w: che'l mond' ho- no-|ra,||||||||E|
 D,2 D,2 C,4 B,,2 B,,2 E,3 F, | G,2 B,2 A,4 G,4 z4 | z4 E,4 D,2 D,2 C,4 | %36
w: s'io fa- ce- va in tal pia-|cer di- mo- ra,|E s'io fa- ce-|
 B,,2 B,,2 E,3 F, G,2 B,2 A,4 | G,2 G,2 E,3 F, G,2 E,2 A,4 | G,2 C,3 C, C,2 G,2 E,2 D,4 | %39
w: va in tal pia- cer di- mo-|ra, in tal pia- cer di- mo-|ra, Ne fa- rei git' in el-|
 C,2 E,3 E, E,2 G,2 C,2 G,4 | C,8 z8 | z2 A,,2 C,2 C,2 B,,4 A,,4 | C,8 B,,4 E,4 | %43
w: la, Ne fa- rei git' in el-|la,|ond' io sa- re- i,|Mor- to den-|
 D,2 E,2 C,D,E,F, G,4 C,4 | z4 A,,4 C,2 D,2 E,4 | A,,2 C,4 D,4 E,2 B,,4 | E,2 A,,2 A,,4 E,8 |] %47
w: tro al mio cor- * * * * po|et viv' in le-|i, et viv' in le-|i, in le- i.|

